source/Icon/toxins.svg

<svg width="32" height="32" viewBox="0 0 48 48" fill="none" xmlns="http://www.w3.org/2000/svg">
    <path fill-rule="evenodd" clip-rule="evenodd" d="M33.9579 44.0002C33.9579 44.0002 33.9824 40.5294 33.9579 39.7603C34.5074 39.4659 35.0408 39.1454 35.5563 38.8002C36.5925 38.1066 37.5566 37.3137 38.435 36.4353C41.8734 32.9969 44 28.2469 44 23.0002C44 12.5068 35.4934 4.00024 25 4.00024C14.5066 4.00024 6 12.5068 6 23.0002C6 28.2469 8.12665 32.9969 11.565 36.4353C12.4434 37.3137 13.4075 38.1066 14.4437 38.8002C14.9592 39.1454 15.4547 39.4659 16.0043 39.7603C16.0043 40.0084 16.0043 41.4218 16.0043 44.0002C27.9733 44.0002 33.9579 44.0002 33.9579 44.0002Z" fill="#2F88FF" stroke="#000000" stroke-width="4" stroke-linejoin="round"/>
    <path d="M18 27.0002C20.2091 27.0002 22 25.2094 22 23.0002L18 19.0002C15.7909 19.0002 14 20.7911 14 23.0002C14 25.2094 15.7909 27.0002 18 27.0002Z" fill="#43CCF8" stroke="#FFF" stroke-width="4" stroke-linejoin="round"/>
    <path d="M32 27.0002C29.7909 27.0002 28 25.2094 28 23.0002L32 19.0002C34.2091 19.0002 36 20.7911 36 23.0002C36 25.2094 34.2091 27.0002 32 27.0002Z" fill="#43CCF8" stroke="#FFF" stroke-width="4" stroke-linejoin="round"/>
    <path d="M22 34.0002L24.9379 31.0002L28 33.8965" stroke="#FFF" stroke-width="4" stroke-linecap="round" stroke-linejoin="round"/>
</svg>

<svg width="48" height="48" viewBox="0 0 48 48" fill="none" xmlns="http://www.w3.org/2000/svg"><path stroke-linejoin="round" stroke-width="4" stroke="#333" d="M33.958 44s.024-3.47 0-4.24a18.993 18.993 0 0 0 4.477-3.325A18.94 18.94 0 0 0 44 23c0-10.493-8.507-19-19-19S6 12.507 6 23a18.94 18.94 0 0 0 5.565 13.435 19.088 19.088 0 0 0 2.879 2.365c.515.345 1.01.666 1.56.96V44h17.954Z" clip-rule="evenodd"/><path stroke-linejoin="round" stroke-width="4" stroke="#333" d="M18 27a4 4 0 0 0 4-4l-4-4a4 4 0 0 0 0 8ZM32 27a4 4 0 0 1-4-4l4-4a4 4 0 0 1 0 8Z"/><path stroke-linejoin="round" stroke-linecap="round" stroke-width="4" stroke="#333" d="m22 34 2.938-3L28 33.897"/></svg>
